X:1
T:There’s a Hill Lone and Grey
T:There’s a Hill Lone and Grey
T:John R. Bryant
T:Beverly Francis Carradine, 1896
T:Public Domain Courtesy of the Cyber Hymnal™
T:Public Domain Courtesy of the Cyber Hymnal™
C:John R. Bryant
Z:Public Domain
Z:Courtesy of the Cyber Hymnal™
%%score ( 1 2 ) ( 3 4 )
L:1/8
Q:1/4=105
M:3/4
K:Eb
V:1 treble 
V:2 treble 
V:3 bass 
V:4 bass 
V:1
 [EB]>[EB] | [EB]4 [E=A][EB] | [EG]4 [EG]>[EG] | [EG]4 [E^F][EG] | [B,E]4 E>E | E2 [EG]2 [Ec]2 | %6
w: 1.~There’s a|hill lone and|grey, In a|land far a-|way, In a|count- ry be-|
w: 2.~Be- hold!|faint on the|road, ’Neath a|world’s hea- vy|load, Comes a|thorn crown- ed|
w: 3.~Hark! I|hear the dull|blow Of the|ham- mer swung|low; They are|nail- ing my|
w: 4.~How they|mock Him in|death, To His|last lab- oring|breath, While His|friends sad- ly|
w: 5.~Then the|dark- ness came|down And the|rocks rent a-|round, And a|cry pierced the|
w: 6.~Let the|sun hide its|face, let the|earth reel a-|pace, O- ver|men who their|
 [EB]2 [EG]2 E2 | [DF]4 [EG]>[GB] | [Ge]4 [GB]>[GB] | [Ac]4 [Ac][Ac] | [GB]2 [GB]2 [GB]2 | %11
w: yond the blue|sea, Where be-|neath that fair|sky Went a|Man forth to|
w: Man on the|way, With a|cross He is|bowed, But still|on through the|
w: Lord to the|tree, And the|cross they up-|raised While the|mul- ti- tude|
w: weep o’er the|way; But though|lone- ly and|faint, Still no|word of com-|
w: grief la- den|air; ’Twas the|voice of our|king Who re-|ceived death’s dark|
w: Sav- ior have|slain; But be-|hold from the|sod, comes the|blest Lamb of|
 [GB]4 [B,E]>[B,E] | [B,E]2 [EG]2 [Ec]2 | [EB]2 [EG]2 [DF]2 | E4 ||"^Refrain" E>D | C4 C>D | %17
w: die For the|world and for|you and for|me.|||
w: crowd He’s as-|cen- ding that|hill lone and|grey.|||
w: gaze On the|blest Lamb of|dark Cal- va-|ry.|||
w: plaint Fell from|Him on the|hill lone and|grey.|Oh, it|bows down my|
w: sting, All to|save us from|end- less des-|pair.|||
w: God, Who was|slain and is|ris- en a-|gain.|||
 E4 E>[EF] | [EG]2 [EG]2 [EG]2 | [DG]4 [EG]>[EG] | [Ec]2 [Ec]2 [Ge]2 | [Fd]2 [Fd]2 [Ec]2 | %22
w: |||||
w: |||||
w: |||||
w: heart And the|tear- drops will|start, When in|mem- ory that|grey hill I|
w: |||||
w: |||||
 [DB]4 [EG]>[GB] | [Ge]4 [GB]>[GB] | [Ac]4 [Ac][Ac] | [GB]2 [GB]2 [GB]2 | [GB]4 [B,E]>[B,E] | %27
w: |||||
w: |||||
w: |||||
w: see. For ’twas|there on its|side, Je- sus|suf- fered and|died To re-|
w: |||||
w: |||||
 [B,E]2 [EG]2 [Ec]2 | [EB]2 [EG]2 [DF]2 | E4 |] %30
w: |||
w: |||
w: |||
w: deem a poor|sin- ner like|me.|
w: |||
w: |||
V:2
 x2 | x6 | x6 | x6 | x4 E>E | E2 x4 | x4 E2 | x6 | x6 | x6 | x6 | x6 | x6 | x6 | E4 || E>D | %16
 C4 C>D | E4 E3/2 x/ | x6 | x6 | x6 | x6 | x6 | x6 | x6 | x6 | x6 | x6 | x6 | E4 |] %30
V:3
 [E,G,]>[E,G,] | [E,G,]4 [E,^F,][E,G,] | [E,B,]4 [E,B,]>[E,B,] | [E,B,]4 [E,=A,][E,B,] | %4
 [E,G,]4 [E,G,]>[E,G,] | [E,G,]2 [E,B,]2 [A,,A,]2 | [E,G,]2 [E,B,]2 [E,G,]2 | %7
 [B,,B,]4 [E,B,]>[E,B,] | [E,B,]4 [E,E]>[E,E] | [A,E]4 [A,E][A,E] | [E,E]2 [E,E]2 [E,E]2 | %11
 [E,E]4 [E,G,]>[E,G,] | [E,G,]2 [E,B,]2 [A,,A,]2 | [B,,G,]2 [B,,B,]2 [B,,A,]2 | [E,G,]4 || E,>D, | %16
 C,4 C,>D, | E,4 [E,G,]>[E,A,] | [E,B,]2 [C,C]2 [C,C]2 | [G,=B,]4 [C,C]>[C,C] | %20
 [C,G,]2 [C,G,]2 [C,C]2 | [F,B,]2 [F,B,]2 [F,=A,]2 | [B,,B,]4 [E,B,]>[E,B,] | [E,B,]4 [E,E]>[E,E] | %24
 [A,E]4 [A,E][A,E] | [E,E]2 [E,E]2 [E,E]2 | [E,E]4 [E,G,]>[E,G,] | [E,G,]2 [E,B,]2 [A,,A,]2 | %28
 [B,,G,]2 [B,,B,]2 [B,,A,]2 | [E,G,]4 |] %30
V:4
 x2 | x6 | x6 | x6 | x6 | x6 | x6 | x6 | x6 | x6 | x6 | x6 | x6 | x6 | x4 || E,>D, | C,4 C,>D, | %17
 E,4 x2 | x6 | x6 | x6 | x6 | x6 | x6 | x6 | x6 | x6 | x6 | x6 | x4 |] %30

